Newaita-dark/apps/64/gnome-subtitles.svg

<svg height="64" viewBox="0 0 64 64" width="64" xmlns="http://www.w3.org/2000/svg" xmlns:xlink="http://www.w3.org/1999/xlink"><linearGradient id="a"><stop offset="0" stop-opacity=".313726"/><stop offset=".222222" stop-opacity=".27451"/><stop offset="1" stop-opacity="0"/></linearGradient><radialGradient id="b" cx="450.908936" cy="189.579361" gradientTransform="matrix(-.00000021 -.156265 .168766 -.0000002 -20.351707 129.836749)" gradientUnits="userSpaceOnUse" r="21.166656" xlink:href="#a"/><radialGradient id="c" cx="450.908936" cy="189.579361" gradientTransform="matrix(.00000021 .156265 -.168766 .0000002 44.431077 -12.408873)" gradientUnits="userSpaceOnUse" r="21.166656" xlink:href="#a"/><radialGradient id="d" cx="450.908936" cy="189.579361" gradientTransform="matrix(.00000021 -.156265 -.168766 -.0000002 44.431077 129.836749)" gradientUnits="userSpaceOnUse" r="21.166656" xlink:href="#a"/><radialGradient id="e" cx="450.908936" cy="189.579361" gradientTransform="matrix(-.00000021 .156265 .168766 .0000002 -20.351704 -12.408874)" gradientUnits="userSpaceOnUse" r="21.166656" xlink:href="#a"/><linearGradient id="f" gradientTransform="matrix(-.00442264 0 0 .125012 13.944469 29.523658)" gradientUnits="userSpaceOnUse" x1="255.323059" x2="255.323044" y1="233.5" y2="254.666656"><stop offset="0" stop-opacity=".27451"/><stop offset="1" stop-opacity="0"/></linearGradient><linearGradient id="g"><stop offset="0" stop-color="#424242"/><stop offset="1" stop-color="#616161"/></linearGradient><linearGradient id="h" gradientUnits="userSpaceOnUse" x1="370.416656" x2="370.416656" xlink:href="#g" y1="254.666672" y2="-168.666656"/><linearGradient id="i" gradientUnits="userSpaceOnUse" x1="31.753048" x2="31.753048" xlink:href="#g" y1="58.71395600006" y2="5.79220799994"/><linearGradient id="j"><stop offset="0" stop-color="#42a5f5"/><stop offset="1" stop-color="#64b5f6"/></linearGradient><linearGradient id="k" gradientUnits="userSpaceOnUse" x1="31.753048" x2="31.753048" xlink:href="#j" y1="17.69960200003" y2="13.73047200013"/><linearGradient id="l" gradientUnits="userSpaceOnUse" x1="31.753048" x2="31.753048" xlink:href="#j" y1="27.12628400003" y2="23.15715400013"/><linearGradient id="m" gradientUnits="userSpaceOnUse" x1="31.753048" x2="31.753048" xlink:href="#j" y1="36.38761500003" y2="32.41848500013"/><path d="m11.246094 58.714844h-3.175782v-2.648438h3.175782zm0 0" fill="url(#b)"/><path d="m12.832031 58.714844h3.175781v2.644531h-3.175781zm0 0" fill="url(#c)"/><path d="m12.832031 58.714844h3.175781v-2.648438h-3.175781zm0 0" fill="url(#d)"/><path d="m11.246094 58.714844h-3.175782v2.644531h3.175782zm0 0" fill="url(#e)"/><path d="m12.832031 58.714844h-1.585937v2.644531h1.585937zm0 0" fill="url(#f)"/><path d="m306.925452 138.341258c-9.624081 0-14.186146 11.873866-7.030579 18.310751l105.833643 95.240905c6.749356 6.061921 17.529576 1.281128 17.529576-7.811754v-95.240905c0-5.811945-4.718299-10.498997-10.498997-10.498997zm0 0" fill="url(#h)" stroke="#212121" stroke-linecap="round" stroke-linejoin="round" stroke-width="3" transform="matrix(-.125012 0 0 .125012 63.506064 26.877566)"/><path d="m26.339844 44.957031c.210937.480469.140625 1.082031-.324219 1.503907l-13.230469 11.90625c-.84375.757812-2.191406.160156-2.191406-.976563v-1.070313c0 1.136719 1.347656 1.738282 2.191406.976563l13.230469-11.90625c.144531-.128906.25-.277344.324219-.433594zm0 0" fill-opacity=".235294"/><path d="m24.148438 48.128906-1.101563.992188h-12.460937v-.992188zm0 0" fill-opacity=".235294"/><path d="m9.261719 5.792969h44.984375c2.191406 0 3.96875 1.777343 3.96875 3.96875v34.398437c0 2.191406-1.777344 3.96875-3.96875 3.96875h-44.984375c-2.191407 0-3.96875-1.777344-3.96875-3.96875v-34.398437c0-2.191407 1.777343-3.96875 3.96875-3.96875zm0 0" fill="url(#i)"/><path d="m9.261719 5.839844c-2.199219 0-3.96875 1.769531-3.96875 3.96875v.636718c0-2.199218 1.769531-3.96875 3.96875-3.96875h44.984375c2.199218 0 3.96875 1.769532 3.96875 3.96875v-.636718c0-2.199219-1.769532-3.96875-3.96875-3.96875zm0 0" fill="#fff" fill-opacity=".313726"/><path d="m5.292969 43.609375v.550781c0 2.199219 1.769531 3.96875 3.96875 3.96875h44.984375c2.199218 0 3.96875-1.769531 3.96875-3.96875v-.550781c0 2.199219-1.769532 3.96875-3.96875 3.96875h-44.984375c-2.199219 0-3.96875-1.769531-3.96875-3.96875zm0 0" fill-opacity=".235294"/><path d="m74.086675-168.660675h359.840637c17.529576 0 31.746968 14.217392 31.746968 31.746968v275.161224c0 17.529576-14.217392 31.746968-31.746968 31.746968h-359.840637c-17.529576 0-31.746968-14.217392-31.746968-31.746968v-275.161224c0-17.529576 14.217392-31.746968 31.746968-31.746968zm0 0" fill="none" stroke="#212121" stroke-linecap="round" stroke-linejoin="round" stroke-width="3" transform="matrix(.125012 0 0 .125012 0 26.877566)"/><path d="m15.214844 13.730469h33.078125c1.09375 0 1.984375.886719 1.984375 1.984375s-.890625 1.984375-1.984375 1.984375h-33.078125c-1.097656 0-1.984375-.886719-1.984375-1.984375s.886719-1.984375 1.984375-1.984375zm0 0" fill="url(#k)"/><path d="m15.214844 13.730469c-1.097656 0-1.984375.886719-1.984375 1.984375 0 .171875.023437.335937.0625.496094.21875-.859376.992187-1.488282 1.921875-1.488282h33.078125c.925781 0 1.703125.628906 1.921875 1.488282.039062-.160157.0625-.324219.0625-.496094 0-1.097656-.886719-1.984375-1.984375-1.984375zm0 0" fill="#fff" fill-opacity=".392157"/><path d="m15.214844 18.691406c-1.097656 0-1.984375-.882812-1.984375-1.984375 0-.171875.023437-.335937.0625-.496093.21875.859374.992187 1.488281 1.921875 1.488281h33.078125c.925781 0 1.703125-.628907 1.921875-1.488281.039062.160156.0625.324218.0625.496093 0 1.101563-.886719 1.984375-1.984375 1.984375zm0 0" fill-opacity=".235294"/><path d="m121.707128-105.166739h264.599732c8.749164 0 15.873484 7.093073 15.873484 15.873485 0 8.780411-7.12432 15.873484-15.873484 15.873484h-264.599732c-8.780412 0-15.873485-7.093073-15.873485-15.873484 0-8.780412 7.093073-15.873485 15.873485-15.873485zm0 0" fill="none" stroke="#212121" stroke-linecap="round" stroke-linejoin="round" stroke-width="3" transform="matrix(.125012 0 0 .125012 0 26.877566)"/><path d="m15.214844 23.15625h33.078125c1.09375 0 1.984375.890625 1.984375 1.984375 0 1.097656-.890625 1.984375-1.984375 1.984375h-33.078125c-1.097656 0-1.984375-.886719-1.984375-1.984375 0-1.09375.886719-1.984375 1.984375-1.984375zm0 0" fill="url(#l)"/><path d="m15.214844 23.15625c-1.097656 0-1.984375.886719-1.984375 1.984375 0 .171875.023437.339844.0625.496094.21875-.855469.992187-1.488281 1.921875-1.488281h33.078125c.925781 0 1.703125.632812 1.921875 1.488281.039062-.15625.0625-.324219.0625-.496094 0-1.097656-.886719-1.984375-1.984375-1.984375zm0 0" fill="#fff" fill-opacity=".392157"/><path d="m15.214844 28.117188c-1.097656 0-1.984375-.882813-1.984375-1.984376 0-.171874.023437-.335937.0625-.496093.21875.859375.992187 1.488281 1.921875 1.488281h33.078125c.925781 0 1.703125-.628906 1.921875-1.488281.039062.160156.0625.324219.0625.496093 0 1.101563-.886719 1.984376-1.984375 1.984376zm0 0" fill-opacity=".235294"/><path d="m121.707128-105.173939h264.599732c8.749164 0 15.873484 7.12432 15.873484 15.873484 0 8.780412-7.12432 15.873485-15.873484 15.873485h-264.599732c-8.780412 0-15.873485-7.093073-15.873485-15.873485 0-8.749164 7.093073-15.873484 15.873485-15.873484zm0 0" fill="none" stroke="#212121" stroke-linecap="round" stroke-linejoin="round" stroke-width="3" transform="matrix(.125012 0 0 .125012 0 36.304248)"/><path d="m15.214844 32.417969h33.078125c1.09375 0 1.984375.890625 1.984375 1.984375 0 1.097656-.890625 1.984375-1.984375 1.984375h-33.078125c-1.097656 0-1.984375-.886719-1.984375-1.984375 0-1.09375.886719-1.984375 1.984375-1.984375zm0 0" fill="url(#m)"/><path d="m15.214844 32.417969c-1.097656 0-1.984375.886719-1.984375 1.984375 0 .171875.023437.339844.0625.496094.21875-.855469.992187-1.488282 1.921875-1.488282h33.078125c.925781 0 1.703125.632813 1.921875 1.488282.039062-.15625.0625-.324219.0625-.496094 0-1.097656-.886719-1.984375-1.984375-1.984375zm0 0" fill="#fff" fill-opacity=".392157"/><path d="m15.214844 37.378906c-1.097656 0-1.984375-.882812-1.984375-1.984375 0-.171875.023437-.335937.0625-.496093.21875.859374.992187 1.488281 1.921875 1.488281h33.078125c.925781 0 1.703125-.628907 1.921875-1.488281.039062.160156.0625.324218.0625.496093 0 1.101563-.886719 1.984375-1.984375 1.984375zm0 0" fill-opacity=".235294"/><path d="m121.707128-105.170836h264.599732c8.749164 0 15.873484 7.12432 15.873484 15.873484 0 8.780412-7.12432 15.873484-15.873484 15.873484h-264.599732c-8.780412 0-15.873485-7.093072-15.873485-15.873484 0-8.749164 7.093073-15.873484 15.873485-15.873484zm0 0" fill="none" stroke="#212121" stroke-linecap="round" stroke-linejoin="round" stroke-width="3" transform="matrix(.125012 0 0 .125012 0 45.565579)"/></svg>

<?xml version="1.0" encoding="UTF-8"?>
<svg xmlns="http://www.w3.org/2000/svg" xmlns:xlink="http://www.w3.org/1999/xlink" width="64px" height="64px" viewBox="0 0 64 64" version="1.1">
<defs>
<radialGradient id="radial0" gradientUnits="userSpaceOnUse" cx="450.908936" cy="189.579361" fx="450.908936" fy="189.579361" r="21.166656" gradientTransform="matrix(-0.000000209004,-0.156265,0.168766,-0.000000203077,-20.351707,129.836749)">
<stop offset="0" style="stop-color:rgb(0%,0%,0%);stop-opacity:0.313726;"/>
<stop offset="0.222222" style="stop-color:rgb(0%,0%,0%);stop-opacity:0.27451;"/>
<stop offset="1" style="stop-color:rgb(0%,0%,0%);stop-opacity:0;"/>
</radialGradient>
<radialGradient id="radial1" gradientUnits="userSpaceOnUse" cx="450.908936" cy="189.579361" fx="450.908936" fy="189.579361" r="21.166656" gradientTransform="matrix(0.000000209004,0.156265,-0.168766,0.000000203077,44.431077,-12.408873)">
<stop offset="0" style="stop-color:rgb(0%,0%,0%);stop-opacity:0.313726;"/>
<stop offset="0.222222" style="stop-color:rgb(0%,0%,0%);stop-opacity:0.27451;"/>
<stop offset="1" style="stop-color:rgb(0%,0%,0%);stop-opacity:0;"/>
</radialGradient>
<radialGradient id="radial2" gradientUnits="userSpaceOnUse" cx="450.908936" cy="189.579361" fx="450.908936" fy="189.579361" r="21.166656" gradientTransform="matrix(0.000000209004,-0.156265,-0.168766,-0.000000203077,44.431077,129.836749)">
<stop offset="0" style="stop-color:rgb(0%,0%,0%);stop-opacity:0.313726;"/>
<stop offset="0.222222" style="stop-color:rgb(0%,0%,0%);stop-opacity:0.27451;"/>
<stop offset="1" style="stop-color:rgb(0%,0%,0%);stop-opacity:0;"/>
</radialGradient>
<radialGradient id="radial3" gradientUnits="userSpaceOnUse" cx="450.908936" cy="189.579361" fx="450.908936" fy="189.579361" r="21.166656" gradientTransform="matrix(-0.000000209004,0.156265,0.168766,0.000000203077,-20.351704,-12.408874)">
<stop offset="0" style="stop-color:rgb(0%,0%,0%);stop-opacity:0.313726;"/>
<stop offset="0.222222" style="stop-color:rgb(0%,0%,0%);stop-opacity:0.27451;"/>
<stop offset="1" style="stop-color:rgb(0%,0%,0%);stop-opacity:0;"/>
</radialGradient>
<linearGradient id="linear0" gradientUnits="userSpaceOnUse" x1="255.323059" y1="233.5" x2="255.323044" y2="254.666656" gradientTransform="matrix(-0.00442264,0,0,0.125012,13.944469,29.523658)">
<stop offset="0" style="stop-color:rgb(0%,0%,0%);stop-opacity:0.27451;"/>
<stop offset="1" style="stop-color:rgb(0%,0%,0%);stop-opacity:0;"/>
</linearGradient>
<linearGradient id="linear1" gradientUnits="userSpaceOnUse" x1="370.416656" y1="254.666672" x2="370.416656" y2="-168.666656" >
<stop offset="0" style="stop-color:rgb(25.882354%,25.882354%,25.882354%);stop-opacity:1;"/>
<stop offset="1" style="stop-color:rgb(38.039216%,38.039216%,38.039216%);stop-opacity:1;"/>
</linearGradient>
<linearGradient id="linear2" gradientUnits="userSpaceOnUse" x1="254" y1="254.666672" x2="254" y2="-168.666672" gradientTransform="matrix(0.125012,0,0,0.125012,0,26.877566)">
<stop offset="0" style="stop-color:rgb(25.882354%,25.882354%,25.882354%);stop-opacity:1;"/>
<stop offset="1" style="stop-color:rgb(38.039216%,38.039216%,38.039216%);stop-opacity:1;"/>
</linearGradient>
<linearGradient id="linear3" gradientUnits="userSpaceOnUse" x1="254" y1="-73.416664" x2="254" y2="-105.166656" gradientTransform="matrix(0.125012,0,0,0.125012,0,26.877566)">
<stop offset="0" style="stop-color:rgb(25.882354%,64.705884%,96.078432%);stop-opacity:1;"/>
<stop offset="1" style="stop-color:rgb(39.215687%,70.980394%,96.470588%);stop-opacity:1;"/>
</linearGradient>
<linearGradient id="linear4" gradientUnits="userSpaceOnUse" x1="254" y1="-73.416664" x2="254" y2="-105.166656" gradientTransform="matrix(0.125012,0,0,0.125012,0,36.304248)">
<stop offset="0" style="stop-color:rgb(25.882354%,64.705884%,96.078432%);stop-opacity:1;"/>
<stop offset="1" style="stop-color:rgb(39.215687%,70.980394%,96.470588%);stop-opacity:1;"/>
</linearGradient>
<linearGradient id="linear5" gradientUnits="userSpaceOnUse" x1="254" y1="-73.416664" x2="254" y2="-105.166656" gradientTransform="matrix(0.125012,0,0,0.125012,0,45.565579)">
<stop offset="0" style="stop-color:rgb(25.882354%,64.705884%,96.078432%);stop-opacity:1;"/>
<stop offset="1" style="stop-color:rgb(39.215687%,70.980394%,96.470588%);stop-opacity:1;"/>
</linearGradient>
</defs>
<g id="surface1">
<path style=" stroke:none;fill-rule:nonzero;fill:url(#radial0);" d="M 11.246094 58.714844 L 8.070312 58.714844 L 8.070312 56.066406 L 11.246094 56.066406 Z M 11.246094 58.714844 "/>
<path style=" stroke:none;fill-rule:nonzero;fill:url(#radial1);" d="M 12.832031 58.714844 L 16.007812 58.714844 L 16.007812 61.359375 L 12.832031 61.359375 Z M 12.832031 58.714844 "/>
<path style=" stroke:none;fill-rule:nonzero;fill:url(#radial2);" d="M 12.832031 58.714844 L 16.007812 58.714844 L 16.007812 56.066406 L 12.832031 56.066406 Z M 12.832031 58.714844 "/>
<path style=" stroke:none;fill-rule:nonzero;fill:url(#radial3);" d="M 11.246094 58.714844 L 8.070312 58.714844 L 8.070312 61.359375 L 11.246094 61.359375 Z M 11.246094 58.714844 "/>
<path style=" stroke:none;fill-rule:nonzero;fill:url(#linear0);" d="M 12.832031 58.714844 L 11.246094 58.714844 L 11.246094 61.359375 L 12.832031 61.359375 Z M 12.832031 58.714844 "/>
<path style="fill-rule:nonzero;fill:url(#linear1);stroke-width:3;stroke-linecap:round;stroke-linejoin:round;stroke:rgb(12.941177%,12.941177%,12.941177%);stroke-opacity:1;stroke-miterlimit:4;" d="M 306.925452 138.341258 C 297.301371 138.341258 292.739306 150.215124 299.894873 156.652009 L 405.728516 251.892914 C 412.477872 257.954835 423.258092 253.174042 423.258092 244.08116 L 423.258092 148.840255 C 423.258092 143.02831 418.539793 138.341258 412.759095 138.341258 Z M 306.925452 138.341258 " transform="matrix(-0.125012,0,0,0.125012,63.506064,26.877566)"/>
<path style=" stroke:none;fill-rule:nonzero;fill:rgb(0%,0%,0%);fill-opacity:0.235294;" d="M 26.339844 44.957031 C 26.550781 45.4375 26.480469 46.039062 26.015625 46.460938 L 12.785156 58.367188 C 11.941406 59.125 10.59375 58.527344 10.59375 57.390625 L 10.59375 56.320312 C 10.59375 57.457031 11.941406 58.058594 12.785156 57.296875 L 26.015625 45.390625 C 26.160156 45.261719 26.265625 45.113281 26.339844 44.957031 Z M 26.339844 44.957031 "/>
<path style=" stroke:none;fill-rule:nonzero;fill:rgb(0%,0%,0%);fill-opacity:0.235294;" d="M 24.148438 48.128906 L 23.046875 49.121094 L 10.585938 49.121094 L 10.585938 48.128906 Z M 24.148438 48.128906 "/>
<path style=" stroke:none;fill-rule:nonzero;fill:url(#linear2);" d="M 9.261719 5.792969 L 54.246094 5.792969 C 56.4375 5.792969 58.214844 7.570312 58.214844 9.761719 L 58.214844 44.160156 C 58.214844 46.351562 56.4375 48.128906 54.246094 48.128906 L 9.261719 48.128906 C 7.070312 48.128906 5.292969 46.351562 5.292969 44.160156 L 5.292969 9.761719 C 5.292969 7.570312 7.070312 5.792969 9.261719 5.792969 Z M 9.261719 5.792969 "/>
<path style=" stroke:none;fill-rule:nonzero;fill:rgb(100%,100%,100%);fill-opacity:0.313726;" d="M 9.261719 5.839844 C 7.0625 5.839844 5.292969 7.609375 5.292969 9.808594 L 5.292969 10.445312 C 5.292969 8.246094 7.0625 6.476562 9.261719 6.476562 L 54.246094 6.476562 C 56.445312 6.476562 58.214844 8.246094 58.214844 10.445312 L 58.214844 9.808594 C 58.214844 7.609375 56.445312 5.839844 54.246094 5.839844 Z M 9.261719 5.839844 "/>
<path style=" stroke:none;fill-rule:nonzero;fill:rgb(0%,0%,0%);fill-opacity:0.235294;" d="M 5.292969 43.609375 L 5.292969 44.160156 C 5.292969 46.359375 7.0625 48.128906 9.261719 48.128906 L 54.246094 48.128906 C 56.445312 48.128906 58.214844 46.359375 58.214844 44.160156 L 58.214844 43.609375 C 58.214844 45.808594 56.445312 47.578125 54.246094 47.578125 L 9.261719 47.578125 C 7.0625 47.578125 5.292969 45.808594 5.292969 43.609375 Z M 5.292969 43.609375 "/>
<path style="fill:none;stroke-width:3;stroke-linecap:round;stroke-linejoin:round;stroke:rgb(12.941177%,12.941177%,12.941177%);stroke-opacity:1;stroke-miterlimit:4;" d="M 74.086675 -168.660675 L 433.927312 -168.660675 C 451.456888 -168.660675 465.67428 -154.443283 465.67428 -136.913707 L 465.67428 138.247517 C 465.67428 155.777093 451.456888 169.994485 433.927312 169.994485 L 74.086675 169.994485 C 56.557099 169.994485 42.339707 155.777093 42.339707 138.247517 L 42.339707 -136.913707 C 42.339707 -154.443283 56.557099 -168.660675 74.086675 -168.660675 Z M 74.086675 -168.660675 " transform="matrix(0.125012,0,0,0.125012,0,26.877566)"/>
<path style=" stroke:none;fill-rule:nonzero;fill:url(#linear3);" d="M 15.214844 13.730469 L 48.292969 13.730469 C 49.386719 13.730469 50.277344 14.617188 50.277344 15.714844 C 50.277344 16.8125 49.386719 17.699219 48.292969 17.699219 L 15.214844 17.699219 C 14.117188 17.699219 13.230469 16.8125 13.230469 15.714844 C 13.230469 14.617188 14.117188 13.730469 15.214844 13.730469 Z M 15.214844 13.730469 "/>
<path style=" stroke:none;fill-rule:nonzero;fill:rgb(100%,100%,100%);fill-opacity:0.392157;" d="M 15.214844 13.730469 C 14.117188 13.730469 13.230469 14.617188 13.230469 15.714844 C 13.230469 15.886719 13.253906 16.050781 13.292969 16.210938 C 13.511719 15.351562 14.285156 14.722656 15.214844 14.722656 L 48.292969 14.722656 C 49.21875 14.722656 49.996094 15.351562 50.214844 16.210938 C 50.253906 16.050781 50.277344 15.886719 50.277344 15.714844 C 50.277344 14.617188 49.390625 13.730469 48.292969 13.730469 Z M 15.214844 13.730469 "/>
<path style=" stroke:none;fill-rule:nonzero;fill:rgb(0%,0%,0%);fill-opacity:0.235294;" d="M 15.214844 18.691406 C 14.117188 18.691406 13.230469 17.808594 13.230469 16.707031 C 13.230469 16.535156 13.253906 16.371094 13.292969 16.210938 C 13.511719 17.070312 14.285156 17.699219 15.214844 17.699219 L 48.292969 17.699219 C 49.21875 17.699219 49.996094 17.070312 50.214844 16.210938 C 50.253906 16.371094 50.277344 16.535156 50.277344 16.707031 C 50.277344 17.808594 49.390625 18.691406 48.292969 18.691406 Z M 15.214844 18.691406 "/>
<path style="fill:none;stroke-width:3;stroke-linecap:round;stroke-linejoin:round;stroke:rgb(12.941177%,12.941177%,12.941177%);stroke-opacity:1;stroke-miterlimit:4;" d="M 121.707128 -105.166739 L 386.30686 -105.166739 C 395.056024 -105.166739 402.180344 -98.073666 402.180344 -89.293254 C 402.180344 -80.512843 395.056024 -73.41977 386.30686 -73.41977 L 121.707128 -73.41977 C 112.926716 -73.41977 105.833643 -80.512843 105.833643 -89.293254 C 105.833643 -98.073666 112.926716 -105.166739 121.707128 -105.166739 Z M 121.707128 -105.166739 " transform="matrix(0.125012,0,0,0.125012,0,26.877566)"/>
<path style=" stroke:none;fill-rule:nonzero;fill:url(#linear4);" d="M 15.214844 23.15625 L 48.292969 23.15625 C 49.386719 23.15625 50.277344 24.046875 50.277344 25.140625 C 50.277344 26.238281 49.386719 27.125 48.292969 27.125 L 15.214844 27.125 C 14.117188 27.125 13.230469 26.238281 13.230469 25.140625 C 13.230469 24.046875 14.117188 23.15625 15.214844 23.15625 Z M 15.214844 23.15625 "/>
<path style=" stroke:none;fill-rule:nonzero;fill:rgb(100%,100%,100%);fill-opacity:0.392157;" d="M 15.214844 23.15625 C 14.117188 23.15625 13.230469 24.042969 13.230469 25.140625 C 13.230469 25.3125 13.253906 25.480469 13.292969 25.636719 C 13.511719 24.78125 14.285156 24.148438 15.214844 24.148438 L 48.292969 24.148438 C 49.21875 24.148438 49.996094 24.78125 50.214844 25.636719 C 50.253906 25.480469 50.277344 25.3125 50.277344 25.140625 C 50.277344 24.042969 49.390625 23.15625 48.292969 23.15625 Z M 15.214844 23.15625 "/>
<path style=" stroke:none;fill-rule:nonzero;fill:rgb(0%,0%,0%);fill-opacity:0.235294;" d="M 15.214844 28.117188 C 14.117188 28.117188 13.230469 27.234375 13.230469 26.132812 C 13.230469 25.960938 13.253906 25.796875 13.292969 25.636719 C 13.511719 26.496094 14.285156 27.125 15.214844 27.125 L 48.292969 27.125 C 49.21875 27.125 49.996094 26.496094 50.214844 25.636719 C 50.253906 25.796875 50.277344 25.960938 50.277344 26.132812 C 50.277344 27.234375 49.390625 28.117188 48.292969 28.117188 Z M 15.214844 28.117188 "/>
<path style="fill:none;stroke-width:3;stroke-linecap:round;stroke-linejoin:round;stroke:rgb(12.941177%,12.941177%,12.941177%);stroke-opacity:1;stroke-miterlimit:4;" d="M 121.707128 -105.173939 L 386.30686 -105.173939 C 395.056024 -105.173939 402.180344 -98.049619 402.180344 -89.300455 C 402.180344 -80.520043 395.056024 -73.42697 386.30686 -73.42697 L 121.707128 -73.42697 C 112.926716 -73.42697 105.833643 -80.520043 105.833643 -89.300455 C 105.833643 -98.049619 112.926716 -105.173939 121.707128 -105.173939 Z M 121.707128 -105.173939 " transform="matrix(0.125012,0,0,0.125012,0,36.304248)"/>
<path style=" stroke:none;fill-rule:nonzero;fill:url(#linear5);" d="M 15.214844 32.417969 L 48.292969 32.417969 C 49.386719 32.417969 50.277344 33.308594 50.277344 34.402344 C 50.277344 35.5 49.386719 36.386719 48.292969 36.386719 L 15.214844 36.386719 C 14.117188 36.386719 13.230469 35.5 13.230469 34.402344 C 13.230469 33.308594 14.117188 32.417969 15.214844 32.417969 Z M 15.214844 32.417969 "/>
<path style=" stroke:none;fill-rule:nonzero;fill:rgb(100%,100%,100%);fill-opacity:0.392157;" d="M 15.214844 32.417969 C 14.117188 32.417969 13.230469 33.304688 13.230469 34.402344 C 13.230469 34.574219 13.253906 34.742188 13.292969 34.898438 C 13.511719 34.042969 14.285156 33.410156 15.214844 33.410156 L 48.292969 33.410156 C 49.21875 33.410156 49.996094 34.042969 50.214844 34.898438 C 50.253906 34.742188 50.277344 34.574219 50.277344 34.402344 C 50.277344 33.304688 49.390625 32.417969 48.292969 32.417969 Z M 15.214844 32.417969 "/>
<path style=" stroke:none;fill-rule:nonzero;fill:rgb(0%,0%,0%);fill-opacity:0.235294;" d="M 15.214844 37.378906 C 14.117188 37.378906 13.230469 36.496094 13.230469 35.394531 C 13.230469 35.222656 13.253906 35.058594 13.292969 34.898438 C 13.511719 35.757812 14.285156 36.386719 15.214844 36.386719 L 48.292969 36.386719 C 49.21875 36.386719 49.996094 35.757812 50.214844 34.898438 C 50.253906 35.058594 50.277344 35.222656 50.277344 35.394531 C 50.277344 36.496094 49.390625 37.378906 48.292969 37.378906 Z M 15.214844 37.378906 "/>
<path style="fill:none;stroke-width:3;stroke-linecap:round;stroke-linejoin:round;stroke:rgb(12.941177%,12.941177%,12.941177%);stroke-opacity:1;stroke-miterlimit:4;" d="M 121.707128 -105.170836 L 386.30686 -105.170836 C 395.056024 -105.170836 402.180344 -98.046516 402.180344 -89.297352 C 402.180344 -80.51694 395.056024 -73.423868 386.30686 -73.423868 L 121.707128 -73.423868 C 112.926716 -73.423868 105.833643 -80.51694 105.833643 -89.297352 C 105.833643 -98.046516 112.926716 -105.170836 121.707128 -105.170836 Z M 121.707128 -105.170836 " transform="matrix(0.125012,0,0,0.125012,0,45.565579)"/>
</g>
</svg>
